assets/img/ons-logo-pos.svg

<?xml version="1.0" encoding="UTF-8"?>
<svg width="272px" height="24px" viewBox="0 0 272 24" version="1.1" xmlns="http://www.w3.org/2000/svg" xmlns:xlink="http://www.w3.org/1999/xlink">
    <!-- Generator: Sketch 51 (57462) - http://www.bohemiancoding.com/sketch -->
    <title>ONS-Logo</title>
    <desc>Created with Sketch.</desc>
    <defs>
        <polygon id="path-1" points="0 23.70516 271.2 23.70516 271.2 0.00036 0 0.00036"></polygon>
    </defs>
    <g id="Page-1" stroke="none" stroke-width="1" fill="none" fill-rule="evenodd">
        <g id="ONS-Logo">
            <path d="M36.4488,6.53412 C33.498,6.53412 32.4504,9.76452 32.4504,12.72492 C32.4504,15.64452 33.402,18.85332 36.4488,18.85332 C39.5148,18.85332 40.4292,15.64452 40.4292,12.72492 C40.4292,9.76452 39.3996,6.53412 36.4488,6.53412 M36.4488,20.15772 C32.4504,20.15772 30.6612,16.84572 30.6612,12.76692 C30.6612,8.72892 32.4504,5.37492 36.4488,5.37492 C40.4484,5.37492 42.2184,8.72892 42.2184,12.76692 C42.2184,16.84572 40.4484,20.15772 36.4488,20.15772" id="Fill-1" fill="#033E58"></path>
            <path d="M47.19084,9.72276 L47.19084,19.88916 L45.57204,19.88916 L45.57204,9.72276 L43.91604,9.72276 L43.91604,8.72916 L45.57204,8.72916 L45.57204,7.11396 C45.57204,5.08476 46.77204,3.61476 49.13364,3.61476 C49.30404,3.61476 49.51404,3.63516 49.51404,3.63516 L49.51404,4.67076 L49.32324,4.67076 C48.20004,4.67076 47.19084,5.39556 47.19084,6.92676 L47.19084,8.72916 L49.51404,8.72916 L49.51404,9.72276 L47.19084,9.72276 Z" id="Fill-3" fill="#033E58"></path>
            <path d="M53.8758,9.72276 L53.8758,19.88916 L52.257,19.88916 L52.257,9.72276 L50.601,9.72276 L50.601,8.72916 L52.257,8.72916 L52.257,7.11396 C52.257,5.08476 53.457,3.61476 55.8186,3.61476 C55.989,3.61476 56.199,3.63516 56.199,3.63516 L56.199,4.67076 L56.0082,4.67076 C54.885,4.67076 53.8758,5.39556 53.8758,6.92676 L53.8758,8.72916 L56.199,8.72916 L56.199,9.72276 L53.8758,9.72276 Z" id="Fill-5" fill="#033E58"></path>
            <mask id="mask-2" fill="white">
                <use xlink:href="#path-1"></use>
            </mask>
            <g id="Clip-8"></g>
            <path d="M58.0476,19.88916 L59.6844,19.88916 L59.6844,8.72916 L58.0476,8.72916 L58.0476,19.88916 Z M58.8672,6.59676 C58.296,6.59676 57.8376,6.16116 57.8376,5.60196 C57.8376,5.04396 58.296,4.58796 58.8672,4.58796 C59.4384,4.58796 59.8944,5.04396 59.8944,5.60196 C59.8944,6.16116 59.4384,6.59676 58.8672,6.59676 Z" id="Fill-7" fill="#033E58" mask="url(#mask-2)"></path>
            <path d="M66.65568,20.15772 C64.00848,20.15772 61.97088,17.88132 61.97088,14.29932 C61.97088,10.65492 64.00848,8.46012 66.71208,8.46012 C68.06448,8.46012 68.95848,8.83212 69.43488,9.22692 L69.01608,10.21932 C68.65488,9.95052 67.96848,9.61932 67.07448,9.61932 C64.80768,9.61932 63.64728,11.58612 63.64728,14.23572 C63.64728,16.97052 64.98048,18.91692 67.01688,18.91692 C67.85448,18.91692 68.54088,18.62652 68.99688,18.31572 L69.43488,19.39212 C68.95848,19.78452 68.00688,20.15772 66.65568,20.15772" id="Fill-9" fill="#033E58" mask="url(#mask-2)"></path>
            <path d="M75.32052,9.51588 C73.51212,9.51588 71.98812,10.92348 72.00732,14.04948 L78.34812,13.18068 C78.34812,10.59228 77.11092,9.51588 75.32052,9.51588 Z M72.08292,14.98188 C72.29292,17.61108 73.74012,18.93708 76.00572,18.93708 C77.37732,18.93708 78.42372,18.58548 79.03332,18.25308 L79.50972,19.39188 C78.80412,19.78548 77.49132,20.15748 75.89172,20.15748 C72.75012,20.15748 70.52172,18.29388 70.52172,14.27748 C70.52172,10.44708 72.57852,8.45988 75.37812,8.45988 C78.21492,8.45988 79.94652,10.19868 79.94652,13.92588 L72.08292,14.98188 Z" id="Fill-10" fill="#033E58" mask="url(#mask-2)"></path>
            <path d="M87.82968,9.72276 L87.82968,19.88916 L86.21088,19.88916 L86.21088,9.72276 L84.55368,9.72276 L84.55368,8.72916 L86.21088,8.72916 L86.21088,7.11396 C86.21088,5.08476 87.41088,3.61476 89.77248,3.61476 C89.94168,3.61476 90.15288,3.63516 90.15288,3.63516 L90.15288,4.67076 L89.96088,4.67076 C88.83888,4.67076 87.82968,5.39556 87.82968,6.92676 L87.82968,8.72916 L90.15288,8.72916 L90.15288,9.72276 L87.82968,9.72276 Z" id="Fill-11" fill="#033E58" mask="url(#mask-2)"></path>
            <path d="M96.0738,9.55692 C93.6378,9.55692 92.9322,12.02172 92.9322,14.31972 C92.9322,16.61772 93.6942,18.97812 96.0738,18.97812 C98.5122,18.97812 99.2154,16.61772 99.2154,14.31972 C99.2154,12.02172 98.5122,9.55692 96.0738,9.55692 M96.0738,20.15772 C92.7798,20.15772 91.2762,17.61132 91.2762,14.31972 C91.2762,11.02692 92.7798,8.46012 96.0738,8.46012 C99.369,8.46012 100.8546,11.02692 100.8546,14.31972 C100.8546,17.61132 99.369,20.15772 96.0738,20.15772" id="Fill-12" fill="#033E58" mask="url(#mask-2)"></path>
            <path d="M107.88336,9.76428 C106.85376,9.49428 105.35016,9.53628 104.64456,9.97068 L104.64456,19.88988 L103.00776,19.88988 L103.00776,9.22668 C104.18736,8.72868 105.36936,8.45988 107.46336,8.45988 C107.74896,8.45988 108.13056,8.45988 108.30096,8.48028 L107.88336,9.76428 Z" id="Fill-13" fill="#033E58" mask="url(#mask-2)"></path>
            <path d="M122.5764,19.99836 L116.2536,10.24476 C115.7784,9.51996 115.4352,8.79756 115.4352,8.79756 L115.398,8.79756 C115.398,8.79756 115.4544,9.62436 115.4544,10.49316 L115.4544,19.99836 L113.3796,19.99836 L113.3796,5.75196 L115.722,5.75196 L121.7196,14.92356 C122.2524,15.73116 122.5572,16.39596 122.5572,16.39596 L122.5956,16.39596 C122.5956,16.39596 122.5188,15.58596 122.5188,14.73756 L122.5188,5.75196 L124.6128,5.75196 L124.6128,19.99836 L122.5764,19.99836 Z" id="Fill-14" fill="#033E58" mask="url(#mask-2)"></path>
            <path d="M133.48944,13.82604 C130.72824,14.11764 128.88144,14.63484 128.88144,16.79004 C128.88144,18.29844 129.94824,18.94164 131.62344,18.94164 C132.40464,18.94164 133.07064,18.77484 133.48944,18.56844 L133.48944,13.82604 Z M131.43264,20.28804 C128.15904,20.28804 126.61584,18.98244 126.61584,16.84884 C126.61584,13.85004 129.75744,13.03884 133.48944,12.71004 L133.48944,12.06804 C133.48944,10.53444 132.44304,10.07844 130.91904,10.07844 C129.83424,10.07844 128.59584,10.38924 127.89144,10.72284 L127.33944,9.35484 C128.12064,9.02484 129.58584,8.54724 131.35704,8.54724 C133.83144,8.54724 135.73704,9.56124 135.73704,12.41844 L135.73704,19.48044 C134.78424,19.95684 133.28064,20.28804 131.43264,20.28804 Z" id="Fill-15" fill="#033E58" mask="url(#mask-2)"></path>
            <path d="M142.21056,20.24556 C139.86816,20.24556 138.97416,18.73236 138.97416,17.22276 L138.97416,10.28676 L137.41176,10.28676 L137.41176,8.83836 L138.97416,8.83836 L138.97416,6.33276 L141.35376,5.67036 L141.35376,8.83836 L143.52456,8.83836 L143.52456,10.28676 L141.35376,10.28676 L141.35376,17.09916 C141.35376,17.96796 141.86736,18.65076 142.87776,18.65076 C143.10456,18.65076 143.29536,18.60996 143.52456,18.54756 L143.52456,20.01876 C143.29536,20.12076 142.82016,20.24556 142.21056,20.24556" id="Fill-16" fill="#033E58" mask="url(#mask-2)"></path>
            <path d="M145.392,19.99836 L147.7908,19.99836 L147.7908,8.83836 L145.392,8.83836 L145.392,19.99836 Z M146.5908,6.91116 C145.8288,6.91116 145.2024,6.35316 145.2024,5.67036 C145.2024,4.98756 145.8288,4.42596 146.5908,4.42596 C147.3528,4.42596 147.9816,4.98756 147.9816,5.67036 C147.9816,6.35316 147.3528,6.91116 146.5908,6.91116 Z" id="Fill-17" fill="#033E58" mask="url(#mask-2)"></path>
            <path d="M154.95108,10.07844 C152.89548,10.07844 152.28468,12.23244 152.28468,14.40684 C152.28468,16.58004 152.93268,18.65124 154.95108,18.65124 C157.00788,18.65124 157.61748,16.58004 157.61748,14.40684 C157.61748,12.23244 157.00788,10.07844 154.95108,10.07844 M154.95108,20.28804 C151.54188,20.28804 149.84868,17.75964 149.84868,14.42844 C149.84868,11.09604 151.54188,8.54724 154.95108,8.54724 C158.35908,8.54724 160.03428,11.09604 160.03428,14.42844 C160.03428,17.75964 158.35908,20.28804 154.95108,20.28804" id="Fill-18" fill="#033E58" mask="url(#mask-2)"></path>
            <path d="M168.89292,19.99836 L168.89292,12.02556 C168.89292,10.59636 167.67252,10.05756 166.30212,10.05756 C165.56052,10.05756 164.83572,10.20276 164.37852,10.38996 L164.37852,19.99836 L161.99892,19.99836 L161.99892,9.35556 C163.04652,8.89956 164.68332,8.54796 166.43532,8.54796 C169.34892,8.54796 171.29172,9.54036 171.29172,11.98476 L171.29172,19.99836 L168.89292,19.99836 Z" id="Fill-19" fill="#033E58" mask="url(#mask-2)"></path>
            <path d="M180.05148,13.82604 C177.29028,14.11764 175.44348,14.63484 175.44348,16.79004 C175.44348,18.29844 176.51148,18.94164 178.18668,18.94164 C178.96788,18.94164 179.63268,18.77484 180.05148,18.56844 L180.05148,13.82604 Z M177.99588,20.28804 C174.72228,20.28804 173.17788,18.98244 173.17788,16.84884 C173.17788,13.85004 176.32068,13.03884 180.05148,12.71004 L180.05148,12.06804 C180.05148,10.53444 179.00628,10.07844 177.48228,10.07844 C176.39748,10.07844 175.15908,10.38924 174.45468,10.72284 L173.90268,9.35484 C174.68148,9.02484 176.14788,8.54724 177.92028,8.54724 C180.39468,8.54724 182.29908,9.56124 182.29908,12.41844 L182.29908,19.48044 C181.34748,19.95684 179.84268,20.28804 177.99588,20.28804 Z" id="Fill-20" fill="#033E58" mask="url(#mask-2)"></path>
            <polygon id="Fill-21" fill="#033E58" mask="url(#mask-2)" points="184.75776 19.99836 184.75776 14.61276 184.75776 3.74316 187.13736 3.74316 187.13736 9.25836 187.13736 19.99836"></polygon>
            <path d="M196.6008,20.2878 C194.8872,20.2878 193.4964,19.9134 192.7176,19.4802 L193.3824,17.7402 C193.9548,18.0702 195.0204,18.423 196.1256,18.423 C197.7804,18.423 198.9624,17.451 198.9624,16.0422 C198.9624,12.915 193.0392,14.1174 193.0392,9.6858 C193.0392,7.4274 194.868,5.4606 197.7624,5.4606 C199.3044,5.4606 200.5236,5.8758 201.1884,6.2694 L200.58,7.8222 C200.0652,7.5126 199.0764,7.1586 198.0864,7.1586 C196.5432,7.1586 195.534,8.091 195.534,9.417 C195.534,12.4806 201.588,11.1546 201.588,15.8742 C201.588,18.4026 199.5144,20.2878 196.6008,20.2878" id="Fill-22" fill="#033E58" mask="url(#mask-2)"></path>
            <path d="M207.62808,20.24556 C205.28688,20.24556 204.39048,18.73236 204.39048,17.22276 L204.39048,10.28676 L202.83048,10.28676 L202.83048,8.83836 L204.39048,8.83836 L204.39048,6.33276 L206.77128,5.67036 L206.77128,8.83836 L208.94208,8.83836 L208.94208,10.28676 L206.77128,10.28676 L206.77128,17.09916 C206.77128,17.96796 207.28608,18.65076 208.29528,18.65076 C208.52328,18.65076 208.71288,18.60996 208.94208,18.54756 L208.94208,20.01876 C208.71288,20.12076 208.23768,20.24556 207.62808,20.24556" id="Fill-23" fill="#033E58" mask="url(#mask-2)"></path>
            <path d="M217.11204,13.82604 C214.35084,14.11764 212.50404,14.63484 212.50404,16.79004 C212.50404,18.29844 213.57084,18.94164 215.24484,18.94164 C216.02724,18.94164 216.69324,18.77484 217.11204,18.56844 L217.11204,13.82604 Z M215.05524,20.28804 C211.78044,20.28804 210.23724,18.98244 210.23724,16.84884 C210.23724,13.85004 213.38124,13.03884 217.11204,12.71004 L217.11204,12.06804 C217.11204,10.53444 216.06444,10.07844 214.54044,10.07844 C213.45564,10.07844 212.21844,10.38924 211.51284,10.72284 L210.96084,9.35484 C211.74324,9.02484 213.20844,8.54724 214.97964,8.54724 C217.45404,8.54724 219.35844,9.56124 219.35844,12.41844 L219.35844,19.48044 C218.40564,19.95684 216.90204,20.28804 215.05524,20.28804 Z" id="Fill-24" fill="#033E58" mask="url(#mask-2)"></path>
            <path d="M225.83436,20.24556 C223.49196,20.24556 222.59676,18.73236 222.59676,17.22276 L222.59676,10.28676 L221.03556,10.28676 L221.03556,8.83836 L222.59676,8.83836 L222.59676,6.33276 L224.97636,5.67036 L224.97636,8.83836 L227.14716,8.83836 L227.14716,10.28676 L224.97636,10.28676 L224.97636,17.09916 C224.97636,17.96796 225.48996,18.65076 226.50036,18.65076 C226.72716,18.65076 226.91916,18.60996 227.14716,18.54756 L227.14716,20.01876 C226.91916,20.12076 226.44276,20.24556 225.83436,20.24556" id="Fill-25" fill="#033E58" mask="url(#mask-2)"></path>
            <path d="M229.014,19.99836 L231.414,19.99836 L231.414,8.83836 L229.014,8.83836 L229.014,19.99836 Z M230.2128,6.91116 C229.452,6.91116 228.8232,6.35316 228.8232,5.67036 C228.8232,4.98756 229.452,4.42596 230.2128,4.42596 C230.9748,4.42596 231.6048,4.98756 231.6048,5.67036 C231.6048,6.35316 230.9748,6.91116 230.2128,6.91116 Z" id="Fill-26" fill="#033E58" mask="url(#mask-2)"></path>
            <path d="M236.61324,20.2878 C235.22364,20.2878 233.90844,19.8942 233.24244,19.4802 L233.87124,17.9478 C234.34644,18.2778 235.29804,18.6102 236.30844,18.6102 C237.52764,18.6102 238.49724,17.823 238.49724,16.8714 C238.49724,14.2206 233.60484,15.4626 233.60484,11.8194 C233.60484,10.1622 235.09044,8.547 237.50724,8.547 C238.88004,8.547 239.88804,8.8998 240.64884,9.3558 L240.02124,10.7406 C239.65884,10.4934 238.91724,10.0998 237.98484,10.0998 C236.74644,10.0998 235.98444,10.845 235.98444,11.6934 C235.98444,14.1798 240.97404,13.0818 240.97404,16.809 C240.97404,18.5886 239.27964,20.2878 236.61324,20.2878" id="Fill-27" fill="#033E58" mask="url(#mask-2)"></path>
            <path d="M247.03236,20.24556 C244.69116,20.24556 243.79476,18.73236 243.79476,17.22276 L243.79476,10.28676 L242.23356,10.28676 L242.23356,8.83836 L243.79476,8.83836 L243.79476,6.33276 L246.17556,5.67036 L246.17556,8.83836 L248.34636,8.83836 L248.34636,10.28676 L246.17556,10.28676 L246.17556,17.09916 C246.17556,17.96796 246.68916,18.65076 247.69956,18.65076 C247.92636,18.65076 248.11716,18.60996 248.34636,18.54756 L248.34636,20.01876 C248.11716,20.12076 247.64076,20.24556 247.03236,20.24556" id="Fill-28" fill="#033E58" mask="url(#mask-2)"></path>
            <path d="M250.2144,19.99836 L252.6132,19.99836 L252.6132,8.83836 L250.2144,8.83836 L250.2144,19.99836 Z M251.4132,6.91116 C250.6512,6.91116 250.0236,6.35316 250.0236,5.67036 C250.0236,4.98756 250.6512,4.42596 251.4132,4.42596 C252.174,4.42596 252.804,4.98756 252.804,5.67036 C252.804,6.35316 252.174,6.91116 251.4132,6.91116 Z" id="Fill-29" fill="#033E58" mask="url(#mask-2)"></path>
            <path d="M259.50696,20.2878 C256.76496,20.2878 254.67096,18.0498 254.67096,14.4078 C254.67096,10.7226 256.82256,8.547 259.52496,8.547 C260.91576,8.547 261.84696,8.9406 262.38216,9.3558 L261.84696,10.6998 C261.50616,10.4514 260.89536,10.1622 260.09616,10.1622 C258.15456,10.1622 257.14536,11.8386 257.14536,14.3442 C257.14536,16.893 258.30696,18.5682 260.05896,18.5682 C260.82096,18.5682 261.39216,18.2982 261.80976,18.009 L262.40016,19.4802 C261.90576,19.8942 260.93376,20.2878 259.50696,20.2878" id="Fill-30" fill="#033E58" mask="url(#mask-2)"></path>
            <path d="M266.83944,20.2878 C265.44984,20.2878 264.13464,19.8942 263.46864,19.4802 L264.09744,17.9478 C264.57264,18.2778 265.52544,18.6102 266.53464,18.6102 C267.75264,18.6102 268.72344,17.823 268.72344,16.8714 C268.72344,14.2206 263.83104,15.4626 263.83104,11.8194 C263.83104,10.1622 265.31544,8.547 267.73464,8.547 C269.10624,8.547 270.11424,8.8998 270.87624,9.3558 L270.24744,10.7406 C269.88624,10.4934 269.14344,10.0998 268.21104,10.0998 C266.97264,10.0998 266.21184,10.845 266.21184,11.6934 C266.21184,14.1798 271.20024,13.0818 271.20024,16.809 C271.20024,18.5886 269.50584,20.2878 266.83944,20.2878" id="Fill-31" fill="#033E58" mask="url(#mask-2)"></path>
            <path d="M2.21832,0.00024 C2.21832,0.00024 0.00432,-0.00456 0.00432,2.74344 C0.00432,2.92224 0.00312,2.43264 0.00312,3.18144 C0.21432,5.69664 0.98952,8.27424 1.87032,10.53744 C3.11112,8.57904 4.24752,7.35024 6.06072,5.79984 C9.64992,2.72664 13.86312,0.93504 20.42232,0.000239941827 L2.21832,0.00024 Z M0.00432,13.87464 C0.36192,13.13184 0.62472,12.55464 1.03752,11.85384 C0.56472,10.72464 0.29592,10.16064 -0.00048,8.95704 C-0.00168,10.91784 0.00432,12.24024 0.00432,13.87464 Z" id="Fill-32" fill="#A8BD3A" mask="url(#mask-2)"></path>
            <path d="M4.323,17.41428 C3.4602,16.40388 2.7222,15.30948 2.0898,14.15628 C1.287,15.67788 0.6042,17.31348 0.0042,19.04268 L0.0042,23.66628 L13.821,23.69268 C9.4458,22.36308 6.8178,20.33868 4.323,17.41428 M23.6094,1.49988 C16.1046,2.21388 10.9818,4.35708 7.311,7.49268 C5.3406,9.17748 4.1262,10.57428 2.847,12.81828 C5.7246,18.40548 11.577,23.10228 20.733,23.70228 L20.9118,23.70468 C20.9118,23.70468 23.7258,23.79948 23.7258,20.67108 L23.7258,1.47708 C23.6886,1.48548 23.649,1.49508 23.6094,1.49988" id="Fill-33" fill="#033E58" mask="url(#mask-2)"></path>
        </g>
    </g>
</svg>

<svg width="272" height="24" xmlns="http://www.w3.org/2000/svg" xmlns:xlink="http://www.w3.org/1999/xlink"><defs><path id="a" d="M0 23.71h271.2V0H0z"/></defs><g fill="none" fill-rule="evenodd"><path d="M36.45 6.53c-2.95 0-4 3.23-4 6.2 0 2.91.95 6.12 4 6.12 3.06 0 3.98-3.2 3.98-6.13 0-2.96-1.03-6.19-3.98-6.19m0 13.63c-4 0-5.79-3.31-5.79-7.4 0-4.03 1.79-7.39 5.79-7.39s5.77 3.36 5.77 7.4c0 4.08-1.77 7.39-5.77 7.39M47.2 9.72V19.9h-1.63V9.72h-1.65v-1h1.65v-1.6c0-2.04 1.2-3.5 3.56-3.5l.38.02v1.03h-.19c-1.12 0-2.13.73-2.13 2.26v1.8h2.32v1H47.2zM53.88 9.72V19.9h-1.62V9.72H50.6v-1h1.66v-1.6c0-2.04 1.2-3.5 3.56-3.5l.38.02v1.03H56c-1.12 0-2.12.73-2.12 2.26v1.8h2.32v1h-2.32z" fill="#033E58"/><mask id="b" fill="#fff"><use xlink:href="#a"/></mask><path d="M58.05 19.89h1.63V8.73h-1.63v11.16zm.82-13.3a1 1 0 0 1-1.03-.99c0-.56.46-1.01 1.03-1.01a1 1 0 0 1 0 2zM66.66 20.16c-2.65 0-4.69-2.28-4.69-5.86 0-3.65 2.04-5.84 4.74-5.84 1.35 0 2.25.37 2.72.77l-.41.99a3.32 3.32 0 0 0-1.95-.6c-2.26 0-3.42 1.97-3.42 4.62 0 2.73 1.33 4.68 3.37 4.68.83 0 1.52-.3 1.98-.6l.43 1.07a4.5 4.5 0 0 1-2.77.77M75.32 9.52c-1.8 0-3.33 1.4-3.31 4.53l6.34-.87c0-2.59-1.24-3.66-3.03-3.66zm-3.24 5.46c.21 2.63 1.66 3.96 3.93 3.96 1.37 0 2.41-.35 3.02-.69l.48 1.14c-.7.4-2.02.77-3.62.77-3.14 0-5.37-1.87-5.37-5.88 0-3.83 2.06-5.82 4.86-5.82 2.83 0 4.57 1.74 4.57 5.47l-7.87 1.05zM87.83 9.72V19.9h-1.62V9.72h-1.66v-1h1.66v-1.6c0-2.04 1.2-3.5 3.56-3.5l.38.02v1.03h-.19c-1.12 0-2.13.73-2.13 2.26v1.8h2.32v1h-2.32zM96.07 9.56c-2.43 0-3.14 2.46-3.14 4.76s.76 4.66 3.14 4.66c2.44 0 3.15-2.36 3.15-4.66 0-2.3-.7-4.76-3.15-4.76m0 10.6c-3.29 0-4.8-2.55-4.8-5.84 0-3.3 1.51-5.86 4.8-5.86 3.3 0 4.78 2.57 4.78 5.86 0 3.3-1.48 5.84-4.78 5.84M107.88 9.76c-1.03-.27-2.53-.22-3.24.21v9.92h-1.63V9.23c1.18-.5 2.36-.77 4.45-.77.29 0 .67 0 .84.02l-.42 1.28zM122.58 20l-6.33-9.76c-.47-.72-.81-1.44-.81-1.44h-.04s.05.82.05 1.7V20h-2.07V5.75h2.34l6 9.17c.53.81.84 1.48.84 1.48h.04s-.08-.81-.08-1.66V5.75h2.1V20h-2.04zM133.49 13.83c-2.76.29-4.6.8-4.6 2.96 0 1.5 1.06 2.15 2.73 2.15a4.4 4.4 0 0 0 1.87-.37v-4.74zm-2.06 6.46c-3.27 0-4.81-1.3-4.81-3.44 0-3 3.14-3.81 6.87-4.14v-.64c0-1.54-1.05-2-2.57-2-1.09 0-2.32.32-3.03.65l-.55-1.37c.78-.33 2.25-.8 4.02-.8 2.47 0 4.38 1.01 4.38 3.87v7.06c-.96.48-2.46.8-4.3.8zM142.21 20.25c-2.34 0-3.24-1.52-3.24-3.03V10.3h-1.56V8.84h1.56v-2.5l2.38-.67v3.17h2.17v1.45h-2.17v6.8c0 .88.52 1.56 1.53 1.56.22 0 .42-.04.64-.1v1.47c-.22.1-.7.23-1.3.23M145.4 20h2.4V8.84h-2.4V20zm1.2-13.09c-.77 0-1.4-.56-1.4-1.24 0-.68.63-1.24 1.4-1.24.75 0 1.38.56 1.38 1.24 0 .68-.63 1.24-1.39 1.24zM154.95 10.08c-2.05 0-2.67 2.15-2.67 4.33 0 2.17.65 4.24 2.67 4.24 2.06 0 2.67-2.07 2.67-4.24 0-2.18-.61-4.33-2.67-4.33m0 10.2c-3.4 0-5.1-2.52-5.1-5.85 0-3.33 1.7-5.88 5.1-5.88 3.4 0 5.08 2.55 5.08 5.88s-1.67 5.86-5.08 5.86M168.9 20v-7.97c0-1.43-1.23-1.97-2.6-1.97-.74 0-1.46.14-1.92.33v9.6H162V9.37c1.05-.46 2.68-.81 4.44-.81 2.9 0 4.85.99 4.85 3.43V20h-2.4zM180.05 13.83c-2.76.29-4.6.8-4.6 2.96 0 1.5 1.06 2.15 2.74 2.15a4.4 4.4 0 0 0 1.86-.37v-4.74zM178 20.29c-3.28 0-4.82-1.3-4.82-3.44 0-3 3.14-3.81 6.87-4.14v-.64c0-1.54-1.04-2-2.57-2-1.08 0-2.32.32-3.03.65l-.55-1.37c.78-.33 2.25-.8 4.02-.8 2.47 0 4.38 1.01 4.38 3.87v7.06c-.95.48-2.46.8-4.3.8zM184.76 20V3.74h2.38V20zM196.6 20.29c-1.71 0-3.1-.38-3.88-.81l.66-1.74c.57.33 1.64.68 2.75.68 1.65 0 2.83-.97 2.83-2.38 0-3.13-5.92-1.92-5.92-6.35 0-2.26 1.83-4.23 4.72-4.23a7 7 0 0 1 3.43.8l-.61 1.56a5.28 5.28 0 0 0-2.5-.66c-1.54 0-2.55.93-2.55 2.26 0 3.06 6.06 1.73 6.06 6.45 0 2.53-2.08 4.42-4.99 4.42M207.63 20.25c-2.34 0-3.24-1.52-3.24-3.03V10.3h-1.56V8.84h1.56v-2.5l2.38-.67v3.17h2.17v1.45h-2.17v6.8c0 .88.52 1.56 1.53 1.56.22 0 .41-.04.64-.1v1.47c-.23.1-.7.23-1.31.23M217.11 13.83c-2.76.29-4.6.8-4.6 2.96 0 1.5 1.06 2.15 2.73 2.15a4.4 4.4 0 0 0 1.87-.37v-4.74zm-2.05 6.46c-3.28 0-4.82-1.3-4.82-3.44 0-3 3.14-3.81 6.87-4.14v-.64c0-1.54-1.05-2-2.57-2-1.08 0-2.32.32-3.03.65l-.55-1.37c.78-.33 2.25-.8 4.02-.8 2.47 0 4.38 1.01 4.38 3.87v7.06c-.95.48-2.46.8-4.3.8zM225.83 20.25c-2.34 0-3.23-1.52-3.23-3.03V10.3h-1.56V8.84h1.56v-2.5l2.38-.67v3.17h2.17v1.45h-2.17v6.8c0 .88.51 1.56 1.52 1.56.23 0 .42-.04.65-.1v1.47c-.23.1-.7.23-1.32.23M229.01 20h2.4V8.84h-2.4V20zm1.2-13.09c-.76 0-1.39-.56-1.39-1.24 0-.68.63-1.24 1.4-1.24.75 0 1.38.56 1.38 1.24 0 .68-.63 1.24-1.39 1.24zM236.61 20.29a7 7 0 0 1-3.37-.81l.63-1.53c.48.33 1.43.66 2.44.66 1.22 0 2.19-.79 2.19-1.74 0-2.65-4.9-1.4-4.9-5.05 0-1.66 1.49-3.27 3.9-3.27 1.38 0 2.39.35 3.15.8l-.63 1.4a3.71 3.71 0 0 0-2.04-.65c-1.23 0-2 .75-2 1.6 0 2.48 5 1.38 5 5.1 0 1.79-1.7 3.49-4.37 3.49M247.03 20.25c-2.34 0-3.24-1.52-3.24-3.03V10.3h-1.56V8.84h1.56v-2.5l2.39-.67v3.17h2.17v1.45h-2.17v6.8c0 .88.5 1.56 1.52 1.56.23 0 .42-.04.65-.1v1.47c-.23.1-.7.23-1.32.23M250.21 20h2.4V8.84h-2.4V20zm1.2-13.09c-.76 0-1.39-.56-1.39-1.24 0-.68.63-1.24 1.4-1.24.75 0 1.38.56 1.38 1.24 0 .68-.63 1.24-1.39 1.24zM259.5 20.29c-2.74 0-4.83-2.24-4.83-5.88 0-3.69 2.15-5.86 4.85-5.86 1.4 0 2.33.4 2.86.8l-.53 1.35a3.01 3.01 0 0 0-1.75-.54c-1.95 0-2.95 1.68-2.95 4.18 0 2.55 1.16 4.23 2.9 4.23a3 3 0 0 0 1.76-.56l.59 1.47c-.5.41-1.47.8-2.9.8M266.84 20.29a7 7 0 0 1-3.37-.81l.63-1.53c.47.33 1.43.66 2.43.66 1.22 0 2.2-.79 2.2-1.74 0-2.65-4.9-1.4-4.9-5.05 0-1.66 1.49-3.27 3.9-3.27 1.38 0 2.38.35 3.15.8l-.63 1.4a3.7 3.7 0 0 0-2.04-.65c-1.24 0-2 .75-2 1.6 0 2.48 4.99 1.38 4.99 5.1 0 1.79-1.7 3.49-4.36 3.49" fill="#033E58" mask="url(#b)"/><path d="M2.22 0S0 0 0 2.74v.44c.21 2.52.99 5.1 1.87 7.36a19.2 19.2 0 0 1 4.2-4.74C9.64 2.73 13.86.94 20.41 0H2.22zM0 13.87c.36-.74.62-1.32 1.04-2.02C.56 10.72.3 10.16 0 8.95v4.92z" fill="#A8BD3A" mask="url(#b)"/><path d="M4.32 17.41c-.86-1-1.6-2.1-2.23-3.25A35.15 35.15 0 0 0 0 19.04v4.63l13.82.02c-4.37-1.33-7-3.35-9.5-6.28M23.61 1.5c-7.5.71-12.63 2.86-16.3 6a18.27 18.27 0 0 0-4.46 5.32C5.72 18.4 11.58 23.1 20.73 23.7h.18s2.82.1 2.82-3.03V1.47l-.12.03" fill="#033E58" mask="url(#b)"/></g></svg>
